src/icons/telegram.svg

<svg width="29" height="23" viewBox="0 0 29 23" fill="none" xmlns="http://www.w3.org/2000/svg">
<path fill-rule="evenodd" clip-rule="evenodd" d="M24.2017 3.24739C24.3803 3.3967 24.4664 3.62938 24.4282 3.85896L21.802 19.6159C21.7654 19.8356 21.6198 20.0218 21.4154 20.1104C21.211 20.1989 20.9756 20.1778 20.7902 20.0542L12.9118 14.8019C12.7587 14.6998 12.6554 14.5382 12.6272 14.3564C12.599 14.1745 12.6483 13.9892 12.7633 13.8455L15.3739 10.5822L11.014 13.4888C10.818 13.6195 10.5669 13.6352 10.3562 13.5298L5.1039 10.9036C4.86866 10.786 4.72631 10.5394 4.74217 10.2768C4.75802 10.0143 4.92901 9.78658 5.17669 9.69812L23.5598 3.13274C23.7789 3.05446 24.0232 3.09808 24.2017 3.24739ZM7.06723 10.4172L10.6026 12.1849L18.1641 7.14399C18.4334 6.96443 18.7935 7.00798 19.0122 7.24658C19.231 7.48518 19.2432 7.84762 19.0409 8.10039L14.236 14.1066L20.6737 18.3984L22.9493 4.74506L7.06723 10.4172Z" fill="#231F20"/>
</svg>

<svg width="29" height="23" viewBox="0 0 29 23" fill="none" xmlns="http://www.w3.org/2000/svg"><path fill-rule="evenodd" clip-rule="evenodd" d="M24.2 3.25c.18.15.27.38.23.6L21.8 19.63a.66.66 0 0 1-1.01.43l-7.88-5.25a.66.66 0 0 1-.15-.95l2.61-3.27-4.36 2.9a.66.66 0 0 1-.65.05L5.1 10.9a.66.66 0 0 1 .08-1.2l18.38-6.57a.66.66 0 0 1 .64.12ZM7.07 10.42l3.53 1.76 7.56-5.04a.66.66 0 0 1 .88.96l-4.8 6 6.43 4.3 2.28-13.65-15.88 5.67Z" fill="#231F20"/></svg>
